Vector/symbolic/apps/com.github.bilelmoussaoui.Authenticator-symbolic.svg

<svg xmlns="http://www.w3.org/2000/svg" width="16" height="16" version="1">
 <path style="fill:#444444" d="M 8 0 C 4.8995789 0 4.1791235 2.4508372 4.0371094 5.4960938 C 2.7893308 6.5940337 2 8.1996741 2 10 C 2 13.324 4.676 16 8 16 C 11.324 16 14 13.324 14 10 C 14 8.1996741 13.210669 6.5940337 11.962891 5.4960938 C 11.820772 2.4507208 11.100324 -1.132207e-15 8 0 z M 8 2 C 9.052645 2 9.6265557 2.6497587 9.8652344 4.296875 C 9.2780277 4.1059935 8.6524822 4 8 4 C 7.3475178 4 6.7219723 4.1059935 6.1347656 4.296875 C 6.3734319 2.6497398 6.9473498 2 8 2 z M 8 6 C 10.216 6 12 7.784 12 10 C 12 12.216 10.216 14 8 14 C 5.784 14 4 12.216 4 10 C 4 7.784 5.784 6 8 6 z M 10.474609 7.5253906 L 9.4140625 7.8789062 L 8.6816406 8.1210938 A 2 2 0 0 0 6.5859375 8.5859375 A 2 2 0 0 0 6.5859375 11.414062 A 2 2 0 0 0 9.4140625 11.414062 A 2 2 0 0 0 9.8789062 9.3183594 L 10.121094 8.5859375 L 10.474609 7.5253906 z"/>
</svg>

<svg xmlns="http://www.w3.org/2000/svg" width="16" height="16" version="1"><path d="M8 0C4.9 0 4.18 2.45 4.037 5.496A5.976 5.976 0 0 0 2 10c0 3.324 2.676 6 6 6s6-2.676 6-6c0-1.8-.79-3.406-2.037-4.504C11.82 2.451 11.1 0 8 0zm0 2c1.053 0 1.627.65 1.865 2.297a6.018 6.018 0 0 0-3.73 0C6.373 2.65 6.947 2 8 2zm0 4c2.216 0 4 1.784 4 4s-1.784 4-4 4-4-1.784-4-4 1.784-4 4-4zm2.475 1.525l-1.06.354-.733.242a2 2 0 0 0-2.096.465 2 2 0 0 0 0 2.828 2 2 0 0 0 2.828 0 2 2 0 0 0 .465-2.096l.242-.732.354-1.06z" fill="#555555"/></svg>
